src/icons/config.prettier.svg

<svg width="16" height="16" viewBox="0 0 16 16" fill="none" xmlns="http://www.w3.org/2000/svg">
<path d="M6.5 13H3.5C3.22386 13 3 13.2239 3 13.5C3 13.7761 3.22386 14 3.5 14H6.5C6.77614 14 7 13.7761 7 13.5C7 13.2239 6.77614 13 6.5 13Z" fill="#D247D2"/>
<path d="M6.5 11H3.5C3.22386 11 3 11.2239 3 11.5C3 11.7761 3.22386 12 3.5 12H6.5C6.77614 12 7 11.7761 7 11.5C7 11.2239 6.77614 11 6.5 11Z" fill="#FFAA00"/>
<path d="M11 9H3.5C3.22386 9 3 9.22386 3 9.5C3 9.77614 3.22386 10 3.5 10H11C11.2761 10 11.5 9.77614 11.5 9.5C11.5 9.22386 11.2761 9 11 9Z" fill="#D247D2"/>
<path d="M13 7H10C9.72386 7 9.5 7.22386 9.5 7.5C9.5 7.77614 9.72386 8 10 8H13C13.2761 8 13.5 7.77614 13.5 7.5C13.5 7.22386 13.2761 7 13 7Z" fill="#F50000"/>
<path d="M13 5H10C9.72386 5 9.5 5.22386 9.5 5.5C9.5 5.77614 9.72386 6 10 6H13C13.2761 6 13.5 5.77614 13.5 5.5C13.5 5.22386 13.2761 5 13 5Z" fill="#FFAA00"/>
<path d="M6.5 7H3.5C3.22386 7 3 7.22386 3 7.5C3 7.77614 3.22386 8 3.5 8H6.5C6.77614 8 7 7.77614 7 7.5C7 7.22386 6.77614 7 6.5 7Z" fill="#0FBEC0"/>
<path d="M6.5 5H3.5C3.22386 5 3 5.22386 3 5.5C3 5.77614 3.22386 6 3.5 6H6.5C6.77614 6 7 5.77614 7 5.5C7 5.22386 6.77614 5 6.5 5Z" fill="#F50000"/>
<path d="M11 3H3.5C3.22386 3 3 3.22386 3 3.5C3 3.77614 3.22386 4 3.5 4H11C11.2761 4 11.5 3.77614 11.5 3.5C11.5 3.22386 11.2761 3 11 3Z" fill="#0FBEC0"/>
</svg>

<svg xmlns="http://www.w3.org/2000/svg" fill="none" viewBox="0 0 16 16">
  <path fill="#D247D2" d="M6.5 13h-3a.5.5 0 0 0 0 1h3a.5.5 0 0 0 0-1Z" />
  <path fill="#FA0" d="M6.5 11h-3a.5.5 0 0 0 0 1h3a.5.5 0 0 0 0-1Z" />
  <path fill="#D247D2" d="M11 9H3.5a.5.5 0 0 0 0 1H11a.5.5 0 0 0 0-1Z" />
  <path fill="#F50000" d="M13 7h-3a.5.5 0 0 0 0 1h3a.5.5 0 0 0 0-1Z" />
  <path fill="#FA0" d="M13 5h-3a.5.5 0 0 0 0 1h3a.5.5 0 0 0 0-1Z" />
  <path fill="#0FBEC0" d="M6.5 7h-3a.5.5 0 0 0 0 1h3a.5.5 0 0 0 0-1Z" />
  <path fill="#F50000" d="M6.5 5h-3a.5.5 0 0 0 0 1h3a.5.5 0 0 0 0-1Z" />
  <path fill="#0FBEC0" d="M11 3H3.5a.5.5 0 0 0 0 1H11a.5.5 0 0 0 0-1Z" />
</svg>
